assets/img/about/about8-3.svg

<svg width="32" height="32" viewBox="0 0 32 32" fill="none" xmlns="http://www.w3.org/2000/svg">
<path d="M29 2H26.5V1.5C26.5 0.673125 25.8269 0 25 0C24.1731 0 23.5 0.673125 23.5 1.5V2H8.5V1.5C8.5 0.673125 7.82687 0 7 0C6.17313 0 5.5 0.673125 5.5 1.5V2H3C1.89688 2 1 2.8975 1 4V25C1 26.1025 1.89688 27 3 27H10C10.2762 27 10.5 26.7763 10.5 26.5C10.5 26.2237 10.2762 26 10 26H3C2.44875 26 2 25.5513 2 25V8H30V25C30 25.5513 29.5513 26 29 26H23.5C23.2237 26 23 26.2237 23 26.5C23 26.7763 23.2237 27 23.5 27H29C30.1031 27 31 26.1025 31 25C31 24.0849 31 5.00475 31 4C31 2.8975 30.1031 2 29 2ZM24.5 1.5C24.5 1.22438 24.7244 1 25 1C25.2756 1 25.5 1.22438 25.5 1.5V4C25.5 4.27563 25.2756 4.5 25 4.5C24.7244 4.5 24.5 4.27563 24.5 4C24.5 3.13106 24.5 2.36631 24.5 1.5ZM6.5 1.5C6.5 1.22438 6.72437 1 7 1C7.27563 1 7.5 1.22438 7.5 1.5V4C7.5 4.27563 7.27563 4.5 7 4.5C6.72437 4.5 6.5 4.27563 6.5 4C6.5 3.13106 6.5 2.36631 6.5 1.5Z" fill="#07ccec"/>
<path d="M24.5 21C24.5 19.3456 23.1544 18 21.5 18C19.8456 18 18.5 19.3456 18.5 21C18.5 22.4844 19.5831 23.72 21 23.9581V26.75C21 29.0938 19.0938 31 16.75 31C14.4062 31 12.5 29.0938 12.5 26.75V23.9716C14.7467 23.7219 16.5 21.8123 16.5 19.5V15C16.5 13.8972 15.6028 13 14.5 13C14.2239 13 14 13.2239 14 13.5C14 13.7761 14.2239 14 14.5 14C15.0514 14 15.5 14.4486 15.5 15V19.5C15.5 21.4299 13.9299 23 12 23C10.0701 23 8.5 21.4299 8.5 19.5V15C8.5 14.4486 8.94863 14 9.5 14C9.77612 14 10 13.7761 10 13.5C10 13.2239 9.77612 13 9.5 13C8.39719 13 7.5 13.8972 7.5 15V19.5C7.5 21.8123 9.25325 23.7219 11.5 23.9716V26.75C11.5 29.645 13.855 32 16.75 32C19.645 32 22 29.645 22 26.75V23.9581C23.4169 23.72 24.5 22.4844 24.5 21ZM22 21.865C21.3337 22.2534 20.5 21.7645 20.5 21C20.5 20.4488 20.9487 20 21.5 20C22.0513 20 22.5 20.4488 22.5 21C22.5 21.3694 22.2987 21.6925 22 21.865Z" fill="#07ccec"/>
</svg>

<svg xmlns="http://www.w3.org/2000/svg" width="32" height="32" fill="none"><path fill="#07ccec" d="M29 2h-2.5v-.5C26.5.673 25.827 0 25 0s-1.5.673-1.5 1.5V2h-15v-.5C8.5.673 7.827 0 7 0S5.5.673 5.5 1.5V2H3c-1.103 0-2 .898-2 2v21c0 1.102.897 2 2 2h7a.5.5 0 1 0 0-1H3c-.551 0-1-.449-1-1V8h28v17c0 .551-.449 1-1 1h-5.5a.5.5 0 1 0 0 1H29c1.103 0 2-.898 2-2V4c0-1.102-.897-2-2-2m-4.5-.5a.5.5 0 0 1 1 0V4a.5.5 0 0 1-1 0zm-18 0a.5.5 0 0 1 1 0V4a.5.5 0 0 1-1 0z"/><path fill="#07ccec" d="M24.5 21c0-1.654-1.346-3-3-3s-3 1.346-3 3a3.004 3.004 0 0 0 2.5 2.958v2.792A4.254 4.254 0 0 1 16.75 31a4.254 4.254 0 0 1-4.25-4.25v-2.778c2.247-.25 4-2.16 4-4.472V15c0-1.103-.897-2-2-2a.5.5 0 0 0 0 1c.551 0 1 .449 1 1v4.5c0 1.93-1.57 3.5-3.5 3.5s-3.5-1.57-3.5-3.5V15c0-.551.449-1 1-1a.5.5 0 0 0 0-1c-1.103 0-2 .897-2 2v4.5a4.506 4.506 0 0 0 4 4.472v2.778A5.256 5.256 0 0 0 16.75 32 5.256 5.256 0 0 0 22 26.75v-2.792A3.004 3.004 0 0 0 24.5 21m-2.5.865c-.666.388-1.5-.1-1.5-.865 0-.551.449-1 1-1s1 .449 1 1c0 .37-.201.692-.5.865"/></svg>
